X: 1
T:The 29th of May
M:4/4
C:
S:Bacon (6MDJ)
N:c.f. Lads-a-Bunchum (Adderbury)
A:Headington
O:English
R:Reel
%P:A/2.(AB)$^4$
P:A.(AB)4
K:G
I:speed 400
P:A
|: D>G | B2 B2 B>cd>B | c2 A2 A2 B>c | d>ed>B c>dc>A | B2 G2  G2 :|\
P:B
|: g>f | e2 d2 d2 G>A | B2 B2 B2 g>f | e2 d2  c2 B2  | A>GF>E D2 \
   D>G | B2 B2 B>cd>B | c2 A2 A2 B>c | d>ed>B c>dc>A | B2 G2  G2 :|
